source/img/features-block2.svg

<svg width="113" height="229" viewBox="0 0 113 229" fill="none" xmlns="http://www.w3.org/2000/svg">
<path d="M0.624532 207.72L58.3045 117.84C61.1045 113.36 62.9712 110.56 63.9045 109.44C70.4379 98.9867 75.1979 90.3067 78.1845 83.4C81.1712 76.4933 82.6645 68.1867 82.6645 58.48C82.6645 47.6533 80.8912 39.3467 77.3445 33.56C73.7979 27.7733 68.0112 24.88 59.9845 24.88C42.0645 24.88 33.1045 38.7867 33.1045 66.6V74.16H3.14453V66.32C3.14453 45.04 7.5312 28.7067 16.3045 17.32C25.0779 5.93332 39.1712 0.239991 58.5845 0.239991C76.5045 0.239991 90.0379 5.37333 99.1845 15.64C108.331 25.72 112.905 40.0933 112.905 58.76C112.905 67.9067 111.785 76.12 109.545 83.4C107.491 90.4933 104.971 96.6533 101.985 101.88C98.9979 107.107 94.3312 114.573 87.9845 124.28L35.9045 203.8H107.585V229H0.624532V207.72Z" fill="#F2F2F2"/>
</svg>

<svg width="113" height="229" fill="none" xmlns="http://www.w3.org/2000/svg"><path d="M.62 207.72l57.68-89.88c2.8-4.48 4.67-7.28 5.6-8.4 6.54-10.45 11.3-19.13 14.28-26.04 3-6.9 4.48-15.21 4.48-24.92 0-10.83-1.77-19.13-5.32-24.92-3.54-5.79-9.33-8.68-17.36-8.68-17.92 0-26.88 13.9-26.88 41.72v7.56H3.14v-7.84c0-21.28 4.4-37.61 13.16-49C25.08 5.93 39.17.24 58.58.24c17.92 0 31.46 5.13 40.6 15.4 9.15 10.08 13.72 24.45 13.72 43.12 0 9.15-1.12 17.36-3.36 24.64a84.75 84.75 0 01-7.56 18.48 478.02 478.02 0 01-14 22.4L35.9 203.8h71.69V229H.61v-21.28z" fill="#F2F2F2"/></svg>
